X: 1
T: Kalamatian\'os 2 [G]
O: Greece
R: kalamatianos
Z: 1999 John Chambers <jc:trillian.mit.edu>
M: 7/8
L: 1/8
K: G
|::: "G"d2g fedc | B2c d2{ed}cB | "D7"A2B c2{dc} BA |1,3 "G"GAB c^cd2 :|2,4 "G"G2D G2z2 :|
|::: "G"d2d "D7"f2"(C)"e2 | "G"d>cB/c/ d4 :::| \
|::: "D7"dcB A2B2 | c2d "G"B>A G2 :::|


